packages/Snappmarket/src/CrossBoldIcon/index.svg

<svg
  xmlns="http://www.w3.org/2000/svg"
  width="32pt"
  height="32pt"
  viewBox="0 0 32 32"
  version="1.1"
  id="CrossBoldIcon"
>
  <g>
    <path d="M 29.761719 6.71875 L 6.71875 29.757812 C 5.484375 30.996094 3.476562 30.996094 2.238281 29.757812 C 1.003906 28.523438 1.003906 26.515625 2.238281 25.28125 L 25.28125 2.238281 C 26.515625 1.003906 28.523438 1.003906 29.761719 2.238281 C 30.996094 3.476562 30.996094 5.484375 29.761719 6.71875 Z M 29.761719 6.71875 " />
    <path d="M 25.28125 29.761719 L 2.238281 6.71875 C 1.003906 5.484375 1.003906 3.476562 2.238281 2.238281 C 3.476562 1.003906 5.484375 1.003906 6.71875 2.238281 L 29.761719 25.28125 C 30.996094 26.515625 30.996094 28.523438 29.761719 29.761719 C 28.523438 30.996094 26.515625 30.996094 25.28125 29.761719 Z M 25.28125 29.761719 " />
  </g>
</svg>

<svg xmlns="http://www.w3.org/2000/svg" viewBox="0 0 32 32">
  <path d="M29.762 6.719L6.719 29.758a3.166 3.166 0 11-4.48-4.477L25.28 2.238a3.173 3.173 0 014.48 0 3.173 3.173 0 010 4.48zm0 0"/>
  <path d="M25.281 29.762L2.238 6.719a3.173 3.173 0 010-4.48 3.173 3.173 0 014.48 0L29.763 25.28a3.173 3.173 0 010 4.48 3.173 3.173 0 01-4.48 0zm0 0"/>
</svg>
